X:124
T:And will he not come again?
M:6/8
L:1/8
K:C
%%score 1 2
V:1 clef-treble
V:2 clef-bass octave=-1
V:1
A|A>BA E2c&C6|(c3B2)A&D3-D2x|[CA]>BA [^C(E]>^F)G|(G3^F2)(E/D/)&D3-D2x|
w:And will he not come a-gain,* And will he not come* a-gain?* No,*
V:2
z|[A,6E6]|[^G,E]3-[G,E]2z|[A,E]3[A,A]3|[DA]3-[DA]2z|
V:1
^C>DE=F2A|^G>ABE2[DAd]|[EAc]>de [E^G(d]>c)[DGB]|[CA]3-[CA]2||
w:no, he is dead, Gone to his death-bed, He ne-ver will come* a-gain.*
V:2
[EG]3[D=FA]3|[DEB]3[CEA]2F|E3E3|A3-A2||

